X:94
T:Chanson de l'aveine
R:Chanson
O:France
B:Le livre des Chansons (Henri Davenson) n94
Z:<anamnese@laposte.net> -- http://anamnese.fr.st
M:9/8
L:1/8
Q:1/4=110
K:F
C2 C F2 F G2 A | F2 F B2 A G A F | A3 G2 z F F F |
F:6/8
F2 E (DE) F | C3 F F F | F2 E (DE) F | C3 F3/ G/ A |
G3 F3/ G/ A | G3 F3/ G/ A | G2 A F2 A | G3-G2 C |
F2 F G2 F | (B2A) G3 | G G G G2 G | (F2E) D2 C | 
F2 F G2 F | (B2A) G3 | G G G G2 A | (F2E) F2 z ||
